remix/Development/git-merge-line.svg

<svg viewBox="0 0 24 24" fill="currentColor" xmlns="http://www.w3.org/2000/svg"><path d="M7.10508 8.78991C7.45179 10.0635 8.61653 11 10 11H14C16.4703 11 18.5222 12.7915 18.9274 15.1461C20.1303 15.5367 21 16.6668 21 18C21 19.6569 19.6569 21 18 21C16.3431 21 15 19.6569 15 18C15 16.7334 15.7849 15.6501 16.8949 15.2101C16.5482 13.9365 15.3835 13 14 13H10C8.87439 13 7.83566 12.6281 7 12.0004V15.1707C8.16519 15.5825 9 16.6938 9 18C9 19.6569 7.65685 21 6 21C4.34315 21 3 19.6569 3 18C3 16.6938 3.83481 15.5825 5 15.1707V8.82929C3.83481 8.41746 3 7.30622 3 6C3 4.34315 4.34315 3 6 3C7.65685 3 9 4.34315 9 6C9 7.26661 8.21506 8.34988 7.10508 8.78991ZM6 7C6.55228 7 7 6.55228 7 6C7 5.44772 6.55228 5 6 5C5.44772 5 5 5.44772 5 6C5 6.55228 5.44772 7 6 7ZM6 19C6.55228 19 7 18.5523 7 18C7 17.4477 6.55228 17 6 17C5.44772 17 5 17.4477 5 18C5 18.5523 5.44772 19 6 19ZM18 19C18.5523 19 19 18.5523 19 18C19 17.4477 18.5523 17 18 17C17.4477 17 17 17.4477 17 18C17 18.5523 17.4477 19 18 19Z"/></svg>

<svg viewBox="0 0 24 24" xmlns="http://www.w3.org/2000/svg"><path fill="none" d="M0 0h24v24H0Z"/><path d="M7.1 8.79h0C7.45 10.09 8.64 11 9.99 11h4v0c2.43 0 4.51 1.74 4.927 4.14v0c1.57.51 2.43 2.2 1.92 3.78 -.41 1.23-1.56 2.06-2.85 2.07h0c-1.66 0-3.01-1.35-3.01-3 -.01-1.24.75-2.34 1.89-2.8v0c-.36-1.31-1.55-2.22-2.9-2.21h-4v0c-1.09 0-2.14-.35-3-1v3.17 0c1.56.55 2.38 2.26 1.82 3.82 -.56 1.56-2.27 2.38-3.83 1.82 -1.57-.56-2.39-2.27-1.83-3.83 .3-.86.97-1.53 1.82-1.83V8.79v0C3.37 8.23 2.55 6.52 3.1 4.96c.55-1.57 2.26-2.39 3.82-1.84s2.38 2.26 1.83 3.82c-.29.81-.92 1.47-1.73 1.79ZM5.99 7v0c.55 0 1-.45 1-1 0-.56-.45-1-1-1v0c-.56 0-1 .44-1 1 0 .55.44 1 1 1Zm0 12v0c.55 0 1-.45 1-1 0-.56-.45-1-1-1v0c-.56 0-1 .44-1 1 0 .55.44 1 1 1Zm12 0v0c.55 0 1-.45 1-1 0-.56-.45-1-1-1v0c-.56 0-1 .44-1 1 0 .55.44 1 1 1Z"/></svg>
